public/images/poses-lg/Halfmoon.svg

<svg width="800" height="800" fill="none" xmlns="http://www.w3.org/2000/svg"><path d="M663.836 559.098c-16.353-1.303-56.143 4.907-40.954 47.055 9.639 26.755 20.251 67.636 4.242 87.936-16.008 20.3 45.087 26.26 61.638-3.629 16.544-29.896 10.419-67.503-11.754-87.508-22.18-20.006-13.172-43.854-13.172-43.854Z" fill="#000" stroke="#000" stroke-width="5" stroke-miterlimit="10"/><path d="m648.95 449.12-30.969 6.083 8.594-47.884" fill="#fff"/><path d="m648.95 449.12-30.969 6.083 8.594-47.884" stroke="#000" stroke-width="5" stroke-miterlimit="10"/><path d="m648.95 449.12-30.969 6.083 8.594-47.884" stroke="#000" stroke-width="5" stroke-miterlimit="10"/><path d="M555.944 486.956s-2.259 111.889 1.279 135.593c3.539 23.701 29.753 103.625 29.753 103.625 3.869 15.153 1.212 27.925 10.31 44.859 9.095 16.932 10.934 14.741 12.646 12.428 1.713-2.318 4.387-46.565-6.401-59.178-3.553-4.151-3.593-5.016-4.739-7.69l-16.304-100.14 18.655-124.131-27.218-26.858-17.981 21.492Z" fill="#fff" stroke="#000" stroke-width="5" stroke-miterlimit="10"/><path d="M555.944 486.956s-2.259 111.889 1.279 135.593c3.539 23.701 29.753 103.625 29.753 103.625 3.869 15.153 1.212 27.925 10.31 44.859 9.095 16.932 10.934 14.741 12.646 12.428 1.713-2.318 4.387-46.565-6.401-59.178-3.553-4.151-3.593-5.016-4.739-7.69l-16.304-100.14 18.655-124.131-27.218-26.858-17.981 21.492Z" stroke="#000" stroke-width="5" stroke-miterlimit="10"/><path d="m626.575 407.316 27.17-108.797 24.916-93.482c1.581-4.811 1.477-9.269 1.341-12.869-.728-19.593 9.924-42.004 19.42-56.242 1.106-1.661 3.69-.95 3.772 1.039.408 9.643 7.461 15.838-7.271 57.406 0 0-11.938 85.106-17.813 107.241-5.875 22.135-29.158 147.506-29.158 147.506" fill="#fff"/><path d="m626.575 407.316 27.17-108.797 24.916-93.482c1.581-4.811 1.477-9.269 1.341-12.869-.728-19.593 9.924-42.004 19.42-56.242 1.106-1.661 3.69-.95 3.772 1.039.408 9.643 7.461 15.838-7.271 57.406 0 0-11.938 85.106-17.813 107.241-5.875 22.135-29.158 147.506-29.158 147.506" stroke="#000" stroke-width="5" stroke-miterlimit="10"/><path d="m626.575 407.316 27.17-108.797 24.916-93.482c1.581-4.811 1.477-9.269 1.341-12.869-.728-19.593 9.924-42.004 19.42-56.242 1.106-1.661 3.69-.95 3.772 1.039.408 9.643 7.461 15.838-7.271 57.406 0 0-11.938 85.106-17.813 107.241-5.875 22.135-29.158 147.506-29.158 147.506" stroke="#000" stroke-width="5" stroke-miterlimit="10"/><path d="M401.977 438.186c-37.155-21.72-53.565-48.52-89.94-71.535-37.412-23.669-69.155-48.734-105.642-74.257-13.026-9.118-27.057-20.269-43.517-28.43-4.478-2.225-13.015-10.183-19.463-6.366-14.037 8.312-27.354-22.757-35.022-33.64-13.246-18.8-30.785-59.123 9.769-13.735 4.971 5.567 17.852 13.001 24.976 16.776 41.488 21.982 71.682 35.252 113.918 51.982 27.032 10.717 51.163 25.803 77.893 36.584 24.79 10 46.028 17.671 73.445 24.245 24.127 5.789 40.313 10.013 61.01 16.331 0 0-7.884 23.598-8.659 48.001-1.289 40.645 5.07 58.205 5.07 58.205.617 2.167-6.546 5.76-6.359 8.297 1.521 20.597 3.769 47.892 1.657 64.836-3.885 31.182-5.415 52.291-11.687 80.987-9.618 44.001-18.217 85.387-14.76 130.146.501 6.479-.323 13.445 6.449 21.775 6.748 8.3 39.094 11.819 56.056 17.917 3.988 1.43 2.175 7.744-2.06 7.829l-75.731 1.071c-6.494.131-11.856-5.004-12.045-11.498-1.075-37.089.576-49.879-3.733-110.805-2.011-28.455-1.543-31.177-.829-56.435.589-20.818.077-47.069.979-67.741.916-21.074-9.658-80.898-1.992-111" fill="#fff"/><path d="M401.977 438.186c-37.155-21.72-53.565-48.52-89.94-71.535-37.412-23.669-69.155-48.734-105.642-74.257-13.026-9.118-27.057-20.269-43.517-28.43-4.478-2.225-13.015-10.183-19.463-6.366-14.037 8.312-27.354-22.757-35.022-33.64-13.246-18.8-30.785-59.123 9.769-13.735 4.971 5.567 17.852 13.001 24.976 16.776 41.488 21.982 71.682 35.252 113.918 51.982 27.032 10.717 51.163 25.803 77.893 36.584 24.79 10 46.028 17.671 73.445 24.245 24.127 5.789 40.313 10.013 61.01 16.331 0 0-7.884 23.598-8.659 48.001-1.289 40.645 5.07 58.205 5.07 58.205.617 2.167-6.546 5.76-6.359 8.297 1.521 20.597 3.769 47.892 1.657 64.836-3.885 31.182-5.415 52.291-11.687 80.987-9.618 44.001-18.217 85.387-14.76 130.146.501 6.479-.323 13.445 6.449 21.775 6.748 8.3 39.094 11.819 56.056 17.917 3.988 1.43 2.175 7.744-2.06 7.829l-75.731 1.071c-6.494.131-11.856-5.004-12.045-11.498-1.075-37.089.576-49.879-3.733-110.805-2.011-28.455-1.543-31.177-.829-56.435.589-20.818.077-47.069.979-67.741.916-21.074-9.658-80.898-1.992-111" stroke="#000" stroke-width="5" stroke-miterlimit="10"/><path d="M401.977 438.186c-37.155-21.72-53.565-48.52-89.94-71.535-37.412-23.669-69.155-48.734-105.642-74.257-13.026-9.118-27.057-20.269-43.517-28.43-4.478-2.225-13.015-10.183-19.463-6.366-14.037 8.312-27.354-22.757-35.022-33.64-13.246-18.8-30.785-59.123 9.769-13.735 4.971 5.567 17.852 13.001 24.976 16.776 41.488 21.982 71.682 35.252 113.918 51.982 27.032 10.717 51.163 25.803 77.893 36.584 24.79 10 46.028 17.671 73.445 24.245 24.127 5.789 40.313 10.013 61.01 16.331 0 0-7.884 23.598-8.659 48.001-1.289 40.645 5.07 58.205 5.07 58.205.617 2.167-6.546 5.76-6.359 8.297 1.521 20.597 3.769 47.892 1.657 64.836-3.885 31.182-5.415 52.291-11.687 80.987-9.618 44.001-18.217 85.387-14.76 130.146.501 6.479-.323 13.445 6.449 21.775 6.748 8.3 39.094 11.819 56.056 17.917 3.988 1.43 2.175 7.744-2.06 7.829l-75.731 1.071c-6.494.131-11.856-5.004-12.045-11.498-1.075-37.089.576-49.879-3.733-110.805-2.011-28.455-1.543-31.177-.829-56.435.589-20.818.077-47.069.979-67.741.916-21.074-9.658-80.898-1.992-111" stroke="#000" stroke-width="5" stroke-miterlimit="10"/><path d="M460.788 403.054c-1.846 28.158 1.803 48.923 5.028 59.295 0 0 46.957 2.649 90.129 24.609 0 0 22.312-9.741 42.268 22.756 0 0 15.842-22.62 56.401 13.189l18.441-2.212-5.95-21.845s-20.551-10.278-18.155-49.726c0 0-19.312-17.618-22.376-41.801 0 0-20.575-12.577-55.415-20.872-34.839-8.295-78.81-21.068-101.754-30.303.002 0-6.731 18.172-8.617 46.91Z" fill="#fff" stroke="#000" stroke-width="5" stroke-miterlimit="10"/><path d="M460.788 403.054c-1.846 28.158 1.803 48.923 5.028 59.295 0 0 46.957 2.649 90.129 24.609 0 0 22.312-9.741 42.268 22.756 0 0 15.842-22.62 56.401 13.189l18.441-2.212-5.95-21.845s-20.551-10.278-18.155-49.726c0 0-19.312-17.618-22.376-41.801 0 0-20.575-12.577-55.415-20.872-34.839-8.295-78.81-21.068-101.754-30.303.002 0-6.731 18.172-8.617 46.91Z" stroke="#000" stroke-width="5" stroke-miterlimit="10"/><path d="M651.973 526.485c.061 8.011 6.367 12.299 9.55 20.511 5.054 13.044 26.442 16.445 39.523 7.882 17.271-11.31-18.621-75.61-29.6-70.75-6.504 2.877-14.695 14.475-16.951 29.318-.731 4.776-2.522 13.039-2.522 13.039Z" fill="#fff" stroke="#000" stroke-width="5" stroke-miterlimit="10"/><path d="M651.973 526.485c.061 8.011 6.367 12.299 9.55 20.511 5.054 13.044 26.442 16.445 39.523 7.882 17.271-11.31-18.621-75.61-29.6-70.75-6.504 2.877-14.695 14.475-16.951 29.318-.731 4.776-2.522 13.039-2.522 13.039Z" stroke="#000" stroke-width="5" stroke-miterlimit="10"/><path d="M704.232 543.125c-6.683-11.053-26.596-26.554-38.525-14.78-13.408 13.239-12.416.08-12.895-3.606-.48-3.691 3.953-13.738 1.89-13.673-2.063.06-17.178 20.778-10.008 38.152 7.166 17.368 17.704 21.448 28.941 21.589 11.236.136 25.341-7.058 30.709-17.029 5.368-9.969-.112-10.653-.112-10.653Z" fill="#000" stroke="#000" stroke-width="5" stroke-miterlimit="10"/><path d="M648.95 458.889c-14.205-16.408-35.023-24.885-49.771-6.083-16.446 20.969-6.444 34.66 7.592 50.668M179.155 245.288c-2.56 5.675-4.754 16.533-5.869 24.377M406.582 732.251c2.736 2.773 22.885 2.392 27.371 0" stroke="#000" stroke-width="5" stroke-miterlimit="10"/></svg>

<svg width="800" height="800" viewBox="0 0 800 800" fill="none" xmlns="http://www.w3.org/2000/svg">
<path d="M663.836 559.098C647.483 557.795 607.693 564.005 622.882 606.153C632.521 632.908 643.133 673.789 627.124 694.089C611.116 714.389 672.211 720.349 688.762 690.46C705.306 660.564 699.181 622.957 677.008 602.952C654.828 582.946 663.836 559.098 663.836 559.098Z" fill="black" stroke="black" stroke-width="5" stroke-miterlimit="10"/>
<path d="M648.95 449.12L617.981 455.203L626.575 407.319" fill="white"/>
<path d="M648.95 449.12L617.981 455.203L626.575 407.319" stroke="black" stroke-width="5" stroke-miterlimit="10"/>
<path d="M648.95 449.12L617.981 455.203L626.575 407.319" stroke="black" stroke-width="5" stroke-miterlimit="10"/>
<path d="M555.944 486.956C555.944 486.956 553.685 598.845 557.223 622.549C560.762 646.25 586.976 726.174 586.976 726.174C590.845 741.327 588.188 754.099 597.286 771.033C606.381 787.965 608.22 785.774 609.932 783.461C611.645 781.143 614.319 736.896 603.531 724.283C599.978 720.132 599.938 719.267 598.792 716.593L582.488 616.453L601.143 492.322L573.925 465.464L555.944 486.956Z" fill="white" stroke="black" stroke-width="5" stroke-miterlimit="10"/>
<path d="M555.944 486.956C555.944 486.956 553.685 598.845 557.223 622.549C560.762 646.25 586.976 726.174 586.976 726.174C590.845 741.327 588.188 754.099 597.286 771.033C606.381 787.965 608.22 785.774 609.932 783.461C611.645 781.143 614.319 736.896 603.531 724.283C599.978 720.132 599.938 719.267 598.792 716.593L582.488 616.453L601.143 492.322L573.925 465.464L555.944 486.956Z" stroke="black" stroke-width="5" stroke-miterlimit="10"/>
<path d="M626.575 407.316L653.745 298.519L678.661 205.037C680.242 200.226 680.138 195.768 680.002 192.168C679.274 172.575 689.926 150.164 699.422 135.926C700.528 134.265 703.112 134.976 703.194 136.965C703.602 146.608 710.655 152.803 695.923 194.371C695.923 194.371 683.985 279.477 678.11 301.612C672.235 323.747 648.952 449.118 648.952 449.118" fill="white"/>
<path d="M626.575 407.316L653.745 298.519L678.661 205.037C680.242 200.226 680.138 195.768 680.002 192.168C679.274 172.575 689.926 150.164 699.422 135.926C700.528 134.265 703.112 134.976 703.194 136.965C703.602 146.608 710.655 152.803 695.923 194.371C695.923 194.371 683.985 279.477 678.11 301.612C672.235 323.747 648.952 449.118 648.952 449.118" stroke="black" stroke-width="5" stroke-miterlimit="10"/>
<path d="M626.575 407.316L653.745 298.519L678.661 205.037C680.242 200.226 680.138 195.768 680.002 192.168C679.274 172.575 689.926 150.164 699.422 135.926C700.528 134.265 703.112 134.976 703.194 136.965C703.602 146.608 710.655 152.803 695.923 194.371C695.923 194.371 683.985 279.477 678.11 301.612C672.235 323.747 648.952 449.118 648.952 449.118" stroke="black" stroke-width="5" stroke-miterlimit="10"/>
<path d="M401.977 438.186C364.822 416.466 348.412 389.666 312.037 366.651C274.625 342.982 242.882 317.917 206.395 292.394C193.369 283.276 179.338 272.125 162.878 263.964C158.4 261.739 149.863 253.781 143.415 257.598C129.378 265.91 116.061 234.841 108.393 223.958C95.1465 205.158 77.6082 164.835 118.162 210.223C123.133 215.79 136.014 223.224 143.138 226.999C184.626 248.981 214.82 262.251 257.056 278.981C284.088 289.698 308.219 304.784 334.949 315.565C359.739 325.565 380.977 333.236 408.394 339.81C432.521 345.599 448.707 349.823 469.404 356.141C469.404 356.141 461.52 379.739 460.745 404.142C459.456 444.787 465.815 462.347 465.815 462.347C466.432 464.514 459.269 468.107 459.456 470.644C460.977 491.241 463.225 518.536 461.113 535.48C457.228 566.662 455.698 587.771 449.426 616.467C439.808 660.468 431.209 701.854 434.666 746.613C435.167 753.092 434.343 760.058 441.115 768.388C447.863 776.688 480.209 780.207 497.171 786.305C501.159 787.735 499.346 794.049 495.111 794.134L419.38 795.205C412.886 795.336 407.524 790.201 407.335 783.707C406.26 746.618 407.911 733.828 403.602 672.902C401.591 644.447 402.059 641.725 402.773 616.467C403.362 595.649 402.85 569.398 403.752 548.726C404.668 527.652 394.094 467.828 401.76 437.726" fill="white"/>
<path d="M401.977 438.186C364.822 416.466 348.412 389.666 312.037 366.651C274.625 342.982 242.882 317.917 206.395 292.394C193.369 283.276 179.338 272.125 162.878 263.964C158.4 261.739 149.863 253.781 143.415 257.598C129.378 265.91 116.061 234.841 108.393 223.958C95.1465 205.158 77.6082 164.835 118.162 210.223C123.133 215.79 136.014 223.224 143.138 226.999C184.626 248.981 214.82 262.251 257.056 278.981C284.088 289.698 308.219 304.784 334.949 315.565C359.739 325.565 380.977 333.236 408.394 339.81C432.521 345.599 448.707 349.823 469.404 356.141C469.404 356.141 461.52 379.739 460.745 404.142C459.456 444.787 465.815 462.347 465.815 462.347C466.432 464.514 459.269 468.107 459.456 470.644C460.977 491.241 463.225 518.536 461.113 535.48C457.228 566.662 455.698 587.771 449.426 616.467C439.808 660.468 431.209 701.854 434.666 746.613C435.167 753.092 434.343 760.058 441.115 768.388C447.863 776.688 480.209 780.207 497.171 786.305C501.159 787.735 499.346 794.049 495.111 794.134L419.38 795.205C412.886 795.336 407.524 790.201 407.335 783.707C406.26 746.618 407.911 733.828 403.602 672.902C401.591 644.447 402.059 641.725 402.773 616.467C403.362 595.649 402.85 569.398 403.752 548.726C404.668 527.652 394.094 467.828 401.76 437.726" stroke="black" stroke-width="5" stroke-miterlimit="10"/>
<path d="M401.977 438.186C364.822 416.466 348.412 389.666 312.037 366.651C274.625 342.982 242.882 317.917 206.395 292.394C193.369 283.276 179.338 272.125 162.878 263.964C158.4 261.739 149.863 253.781 143.415 257.598C129.378 265.91 116.061 234.841 108.393 223.958C95.1465 205.158 77.6082 164.835 118.162 210.223C123.133 215.79 136.014 223.224 143.138 226.999C184.626 248.981 214.82 262.251 257.056 278.981C284.088 289.698 308.219 304.784 334.949 315.565C359.739 325.565 380.977 333.236 408.394 339.81C432.521 345.599 448.707 349.823 469.404 356.141C469.404 356.141 461.52 379.739 460.745 404.142C459.456 444.787 465.815 462.347 465.815 462.347C466.432 464.514 459.269 468.107 459.456 470.644C460.977 491.241 463.225 518.536 461.113 535.48C457.228 566.662 455.698 587.771 449.426 616.467C439.808 660.468 431.209 701.854 434.666 746.613C435.167 753.092 434.343 760.058 441.115 768.388C447.863 776.688 480.209 780.207 497.171 786.305C501.159 787.735 499.346 794.049 495.111 794.134L419.38 795.205C412.886 795.336 407.524 790.201 407.335 783.707C406.26 746.618 407.911 733.828 403.602 672.902C401.591 644.447 402.059 641.725 402.773 616.467C403.362 595.649 402.85 569.398 403.752 548.726C404.668 527.652 394.094 467.828 401.76 437.726" stroke="black" stroke-width="5" stroke-miterlimit="10"/>
<path d="M460.788 403.054C458.942 431.212 462.591 451.977 465.816 462.349C465.816 462.349 512.773 464.998 555.945 486.958C555.945 486.958 578.257 477.217 598.213 509.714C598.213 509.714 614.055 487.094 654.614 522.903L673.055 520.691L667.105 498.846C667.105 498.846 646.554 488.568 648.95 449.12C648.95 449.12 629.638 431.502 626.574 407.319C626.574 407.319 605.999 394.742 571.159 386.447C536.32 378.152 492.349 365.379 469.405 356.144C469.407 356.144 462.674 374.316 460.788 403.054Z" fill="white" stroke="black" stroke-width="5" stroke-miterlimit="10"/>
<path d="M460.788 403.054C458.942 431.212 462.591 451.977 465.816 462.349C465.816 462.349 512.773 464.998 555.945 486.958C555.945 486.958 578.257 477.217 598.213 509.714C598.213 509.714 614.055 487.094 654.614 522.903L673.055 520.691L667.105 498.846C667.105 498.846 646.554 488.568 648.95 449.12C648.95 449.12 629.638 431.502 626.574 407.319C626.574 407.319 605.999 394.742 571.159 386.447C536.32 378.152 492.349 365.379 469.405 356.144C469.407 356.144 462.674 374.316 460.788 403.054Z" stroke="black" stroke-width="5" stroke-miterlimit="10"/>
<path d="M651.973 526.485C652.034 534.496 658.34 538.784 661.523 546.996C666.577 560.04 687.965 563.441 701.046 554.878C718.317 543.568 682.425 479.268 671.446 484.128C664.942 487.005 656.751 498.603 654.495 513.446C653.764 518.222 651.973 526.485 651.973 526.485Z" fill="white" stroke="black" stroke-width="5" stroke-miterlimit="10"/>
<path d="M651.973 526.485C652.034 534.496 658.34 538.784 661.523 546.996C666.577 560.04 687.965 563.441 701.046 554.878C718.317 543.568 682.425 479.268 671.446 484.128C664.942 487.005 656.751 498.603 654.495 513.446C653.764 518.222 651.973 526.485 651.973 526.485Z" stroke="black" stroke-width="5" stroke-miterlimit="10"/>
<path d="M704.232 543.125C697.549 532.072 677.636 516.571 665.707 528.345C652.299 541.584 653.291 528.425 652.812 524.739C652.332 521.048 656.765 511.001 654.702 511.066C652.639 511.126 637.524 531.844 644.694 549.218C651.86 566.586 662.398 570.666 673.635 570.807C684.871 570.943 698.976 563.749 704.344 553.778C709.712 543.809 704.232 543.125 704.232 543.125Z" fill="black" stroke="black" stroke-width="5" stroke-miterlimit="10"/>
<path d="M648.95 458.889C634.745 442.481 613.927 434.004 599.179 452.806C582.733 473.775 592.735 487.466 606.771 503.474" stroke="black" stroke-width="5" stroke-miterlimit="10"/>
<path d="M179.155 245.288C176.595 250.963 174.401 261.821 173.286 269.665" stroke="black" stroke-width="5" stroke-miterlimit="10"/>
<path d="M406.582 732.251C409.318 735.024 429.467 734.643 433.953 732.251" stroke="black" stroke-width="5" stroke-miterlimit="10"/>
</svg>
